resources/js/Projects/EF28/Components/Icons/StairsUp.svg

<?xml version="1.0" encoding="UTF-8" standalone="no"?>
<!-- Created with Inkscape (http://www.inkscape.org/) -->

<svg
    viewBox="0 0 512 512"
    version="1.1"
    id="svg136"
    xml:space="preserve"
    xmlns="http://www.w3.org/2000/svg"
    xmlns:svg="http://www.w3.org/2000/svg"><defs
     id="defs133" /><g
    id="layer1" class="svgIconFill"><path
       id="path489"
       style="fill-opacity:1;stroke:none;stroke-width:64;stroke-miterlimit:10;paint-order:markers fill stroke"
       d="M -256 0 C -114.61538 0 0 -114.61538 0 -256 C 0 -397.38462 -114.61538 -512 -256 -512 C -397.38462 -512 -512 -397.38462 -512 -256 C -512 -114.61538 -397.38462 0 -256 0 z M -137.43945 -100.46875 L -242.86719 -100.46875 C -251.10359 -100.46875 -257.79102 -107.15619 -257.79102 -115.39258 L -257.85742 -115.39258 L -257.85742 -220.81836 C -257.85742 -229.05475 -251.16804 -235.74218 -242.93164 -235.74219 C -234.69527 -235.74216 -228.00784 -229.05473 -228.00781 -220.81836 L -227.97461 -151.40234 L -126.92969 -252.44727 C -121.09837 -258.27861 -111.67708 -258.27862 -105.8457 -252.44727 C -100.01435 -246.61588 -100.01435 -237.19266 -105.8457 -231.36133 L -206.92188 -130.2832 L -137.43945 -130.31641 C -129.20302 -130.31642 -122.51559 -123.62899 -122.51562 -115.39258 C -122.51559 -107.15622 -129.20302 -100.46875 -137.43945 -100.46875 z M -365.92383 -153.01562 L -448.0918 -153.01562 C -459.45406 -153.01562 -468.63477 -162.19634 -468.63477 -173.55859 C -468.63477 -184.92084 -459.45406 -194.09961 -448.0918 -194.09961 L -386.4668 -194.09961 L -386.4668 -255.72656 C -386.4668 -267.08881 -377.28609 -276.26758 -365.92383 -276.26758 L -304.29883 -276.26758 L -304.29883 -337.89453 C -304.29883 -349.25678 -295.12007 -358.43555 -283.75781 -358.43555 L -222.13086 -358.43555 L -222.13086 -420.06055 C -222.13086 -431.4228 -212.9521 -440.60352 -201.58984 -440.60352 L -119.42188 -440.60352 C -108.05963 -440.60352 -98.878906 -431.4228 -98.878906 -420.06055 C -98.878906 -408.69829 -108.05963 -399.51953 -119.42188 -399.51953 L -181.04688 -399.51953 L -181.04688 -337.89453 C -181.04688 -326.53227 -190.2276 -317.35156 -201.58984 -317.35156 L -263.21484 -317.35156 L -263.21484 -255.72656 C -263.21484 -244.3643 -272.39556 -235.18359 -283.75781 -235.18359 L -345.38281 -235.18359 L -345.38281 -173.55859 C -345.38281 -162.19634 -354.56158 -153.01563 -365.92383 -153.01562 z "
       transform="scale(-1)" /><path
    d="m 323.01334,501.89241 c 0,10.08393 8.18815,18.27208 18.27207,18.27208 l 129.07424,-10e-6 c 10.08398,0 18.27213,-8.18817 18.27206,-18.27207 7e-5,-10.08394 -8.18808,-18.27208 -18.27206,-18.27207 l -85.06798,0.0403 123.74994,-123.74997 c 7.13942,-7.13939 7.13942,-18.67541 0,-25.81483 -7.13942,-7.13942 -18.67545,-7.13941 -25.81481,-1e-5 l -123.70964,123.70965 -0.0403,-84.98735 c -3e-5,-10.0839 -8.18818,-18.27204 -18.27207,-18.27208 -10.08394,2e-5 -18.27209,8.18816 -18.27209,18.27209 l -1e-5,129.07426 z"
    id="path5705"
    style="display:none;stroke-width:0.570433" /></g></svg>

<svg xmlns="http://www.w3.org/2000/svg" xml:space="preserve" viewBox="0 0 512 512"><path d="M-256 0C-114.615 0 0-114.615 0-256s-114.615-256-256-256-256 114.615-256 256S-397.385 0-256 0m118.56-100.469h-105.427c-8.237 0-14.924-6.687-14.924-14.924h-.066v-105.425c0-8.237 6.689-14.924 14.925-14.924s14.924 6.687 14.924 14.924l.033 69.416 101.045-101.045c5.832-5.832 15.253-5.832 21.084 0 5.832 5.831 5.832 15.254 0 21.086l-101.076 101.078 69.483-.033c8.236 0 14.923 6.687 14.923 14.923s-6.687 14.924-14.923 14.924m-228.484-52.547h-82.168c-11.362 0-20.543-9.18-20.543-20.543s9.18-20.54 20.543-20.54h61.625v-61.628c0-11.362 9.18-20.54 20.543-20.54h61.625v-61.628c0-11.362 9.179-20.54 20.541-20.54h61.627v-61.626c0-11.362 9.179-20.543 20.541-20.543h82.168c11.362 0 20.543 9.181 20.543 20.543s-9.18 20.541-20.543 20.541h-61.625v61.625c0 11.363-9.18 20.543-20.543 20.543h-61.625v61.625c0 11.363-9.18 20.543-20.543 20.543h-61.625v61.625c0 11.363-9.179 20.543-20.54 20.543" class="svgIconFill" style="fill-opacity:1;stroke:none;stroke-width:64;stroke-miterlimit:10;paint-order:markers fill stroke" transform="scale(-1)"/></svg>
